src/images/icons/Quests.svg

<svg width="20" height="20" viewBox="0 0 20 20" fill="none" xmlns="http://www.w3.org/2000/svg">
<path d="M19.875 8.325C19.925 8.60833 19.9583 8.88733 19.975 9.162C19.9917 9.43733 20 9.71667 20 10C20 11.3833 19.7373 12.6833 19.212 13.9C18.6873 15.1167 17.975 16.175 17.075 17.075C16.175 17.975 15.1167 18.6873 13.9 19.212C12.6833 19.7373 11.3833 20 10 20C8.61667 20 7.31667 19.7373 6.1 19.212C4.88333 18.6873 3.825 17.975 2.925 17.075C2.025 16.175 1.31267 15.1167 0.788 13.9C0.262667 12.6833 0 11.3833 0 10C0 8.61667 0.262667 7.31667 0.788 6.1C1.31267 4.88333 2.025 3.825 2.925 2.925C3.825 2.025 4.88333 1.31233 6.1 0.787C7.31667 0.262333 8.61667 0 10 0C10.85 0 11.671 0.104 12.463 0.312C13.2543 0.520667 14 0.808333 14.7 1.175C14.95 1.30833 15.1043 1.51233 15.163 1.787C15.221 2.06233 15.1583 2.31667 14.975 2.55C14.8083 2.76667 14.5917 2.90833 14.325 2.975C14.0583 3.04167 13.8083 3.00833 13.575 2.875C13.0417 2.59167 12.471 2.375 11.863 2.225C11.2543 2.075 10.6333 2 10 2C7.78333 2 5.896 2.779 4.338 4.337C2.77933 5.89567 2 7.78333 2 10C2 12.2167 2.77933 14.1043 4.338 15.663C5.896 17.221 7.78333 18 10 18C12.2167 18 14.1043 17.221 15.663 15.663C17.221 14.1043 18 12.2167 18 10C18 9.78333 17.9917 9.57067 17.975 9.362C17.9583 9.154 17.9333 8.94167 17.9 8.725C17.8667 8.49167 17.9043 8.275 18.013 8.075C18.121 7.875 18.275 7.71667 18.475 7.6C18.7583 7.43333 19.046 7.429 19.338 7.587C19.6293 7.74567 19.8083 7.99167 19.875 8.325ZM7.9 13.9L5.025 11.025C4.84167 10.8417 4.75433 10.6123 4.763 10.337C4.771 10.0623 4.86667 9.83333 5.05 9.65C5.23333 9.46667 5.46667 9.375 5.75 9.375C6.03333 9.375 6.26667 9.46667 6.45 9.65L8.6 11.8L17.925 2.45C18.1083 2.26667 18.3377 2.179 18.613 2.187C18.8877 2.19567 19.1167 2.29167 19.3 2.475C19.4833 2.65833 19.575 2.89167 19.575 3.175C19.575 3.45833 19.4833 3.69167 19.3 3.875L9.3 13.9C9.11667 14.0833 8.88333 14.175 8.6 14.175C8.31667 14.175 8.08333 14.0833 7.9 13.9Z" fill="white"/>
</svg>

<svg width="20" height="20" fill="none" xmlns="http://www.w3.org/2000/svg"><path d="M19.875 8.325c.05.283.083.562.1.837.017.275.025.555.025.838a9.733 9.733 0 0 1-.788 3.9 10.092 10.092 0 0 1-2.137 3.175c-.9.9-1.958 1.612-3.175 2.137A9.733 9.733 0 0 1 10 20a9.733 9.733 0 0 1-3.9-.788 10.092 10.092 0 0 1-3.175-2.137c-.9-.9-1.612-1.958-2.137-3.175A9.732 9.732 0 0 1 0 10c0-1.383.263-2.683.788-3.9a10.092 10.092 0 0 1 2.137-3.175c.9-.9 1.958-1.613 3.175-2.138A9.743 9.743 0 0 1 10 0c.85 0 1.671.104 2.463.312.791.209 1.537.496 2.237.863a.87.87 0 0 1 .463.612.888.888 0 0 1-.188.763 1.149 1.149 0 0 1-.65.425.98.98 0 0 1-.75-.1 7.422 7.422 0 0 0-1.712-.65A7.758 7.758 0 0 0 10 2c-2.217 0-4.104.779-5.662 2.337C2.779 5.896 2 7.783 2 10s.78 4.104 2.338 5.663C5.896 17.221 7.783 18 10 18s4.104-.779 5.663-2.337C17.221 14.104 18 12.217 18 10a7.996 7.996 0 0 0-.1-1.275c-.033-.233.004-.45.113-.65.108-.2.262-.358.462-.475a.825.825 0 0 1 .863-.013c.291.159.47.405.537.738zM7.9 13.9l-2.875-2.875a.891.891 0 0 1-.262-.688.975.975 0 0 1 .287-.687.948.948 0 0 1 .7-.275c.283 0 .517.092.7.275L8.6 11.8l9.325-9.35a.894.894 0 0 1 .688-.263.978.978 0 0 1 .687.288.948.948 0 0 1 .275.7.948.948 0 0 1-.275.7L9.3 13.9a.948.948 0 0 1-.7.275.948.948 0 0 1-.7-.275z" fill="#fff"/></svg>
